X: 21001
T: Bonny Sally
%R: reel
B: James Oswald "The Caledonian Pocket Companion" v.2 p.100 #1
Z: 2019 John Chambers <jc:trillian.mit.edu>
M: C|
L: 1/8
K: G
"_Lively"zG |\
B3g (dB)(AG) | F2A2 A3D |\
G3B E2(G<d) | {d}c2(BA) {A}B3d |\
g3f (ed)(^cB) | A<F zB G<E zg |
(fd)(BG) F2(Eg) | (f<d)(e<g) (f<d) :: zA |\
d2(^cA) (AF)(ED) | G2 (A/B/c) B3d |\
g3B e3d |
cBAG {G}F3A |\
B2(Gd) c2(Ae) | (d<B) ze (c<A) zd |\
(B<d)(e<g) (f<a) zc | (B<G) (A<c) (B<G) :|
